X: 11
T: My Love is a Band Boy
M: 3/4
L: 1/8
B: "O'Neill's 11"
N: "Playfully" "collected by F. O'Neill"
Z: "Transcribed by Norbert Paap, norbertp@bdu.uva.nl"
K:Am
A-B \
|c2B2A2|G2E2D2|E2A2 .A2|A4 A-B|\
c2d2e2|g2e2.d2|c2d2e2|d4 A-B|
c2d2e2|g2e2d2|c2e2d2|G4 e-d|\
c2B2A2|G2E2D2|E2A2 .A2|A4||
A-B \
|c2-E2.E2|G2-E2.E2|c2-E2.E2|G4 A-B|\
c2B2A2|G2E2D2|E2-A2.A2|A4 A-B|
c2-E2.E2|G2-E2.E2|c2-E2.E2|G4 A-B|\
cBcdef|ag2e2d2|c2-A2.A2|A4|:|
